src/app/apps-pagetree-page-shortcut-external-hideinmenu.svg

<?xml version="1.0" encoding="UTF-8" standalone="no"?>
<svg
   xmlns:dc="http://purl.org/dc/elements/1.1/"
   xmlns:cc="http://creativecommons.org/ns#"
   xmlns:rdf="http://www.w3.org/1999/02/22-rdf-syntax-ns#"
   xmlns:svg="http://www.w3.org/2000/svg"
   xmlns="http://www.w3.org/2000/svg"
   version="1.1"
   id="svg2"
   viewBox="0 0 16 16">
  <metadata
     id="metadata16">
    <rdf:RDF>
      <cc:Work
         rdf:about="">
        <dc:format>image/svg+xml</dc:format>
        <dc:type
           rdf:resource="http://purl.org/dc/dcmitype/StillImage" />
        <dc:title></dc:title>
      </cc:Work>
    </rdf:RDF>
  </metadata>
  <defs
     id="defs14">
    <clipPath
       clipPathUnits="userSpaceOnUse"
       id="clipPath3391">
      <path
         d="M 0,600 800,600 800,0 0,0 0,600 Z"
         id="path3393" />
    </clipPath>
    <clipPath
       clipPathUnits="userSpaceOnUse"
       id="clipPath3407">
      <path
         d="m 316,477.408 60.363,0 0,-60.408 -60.363,0 0,60.408 z"
         id="path3409" />
    </clipPath>
    <clipPath
       clipPathUnits="userSpaceOnUse"
       id="clipPath3427">
      <path
         d="m 622,477.971 60.121,0 0,-59.971 -60.121,0 0,59.971 z"
         id="path3429" />
    </clipPath>
    <clipPath
       id="clipPath3391-7"
       clipPathUnits="userSpaceOnUse">
      <path
         id="path3393-8"
         d="M 0,600 800,600 800,0 0,0 0,600 Z" />
    </clipPath>
    <clipPath
       id="clipPath3407-0"
       clipPathUnits="userSpaceOnUse">
      <path
         id="path3409-3"
         d="m 316,477.408 60.363,0 0,-60.408 -60.363,0 0,60.408 z" />
    </clipPath>
    <clipPath
       id="clipPath3427-9"
       clipPathUnits="userSpaceOnUse">
      <path
         id="path3429-3"
         d="m 622,477.971 60.121,0 0,-59.971 -60.121,0 0,59.971 z" />
    </clipPath>
  </defs>
  <g
     transform="matrix(0,1,-1,0,5.6437136,64.159903)"
     id="g4198"
     style="stroke:#000000;stroke-width:2;stroke-miterlimit:2.5;stroke-dasharray:none;stroke-opacity:1" />
  <g
     transform="matrix(0,1,-1,0,5.6437134,64.159903)"
     id="g4198-3"
     style="stroke:#000000;stroke-width:2;stroke-miterlimit:4;stroke-dasharray:none;stroke-opacity:0.68488746" />
  <g
     transform="matrix(0,1,-1,0,5.6437136,64.159903)"
     id="g4198-2"
     style="stroke:#000000;stroke-width:2;stroke-miterlimit:2.5;stroke-dasharray:none;stroke-opacity:1" />
  <g
     transform="matrix(0,-1,1,0,18.643724,-16.306198)"
     id="g4198-3-6-3" />
  <g
     transform="translate(4.6845824,15.909903)"
     style="display:inline"
     id="layer2" />
  <g
     transform="matrix(0.57142856,0,0,0.57142856,6.8571433,7.4285714)"
     id="overlay-missing">
    <g
       style="opacity:0.55"
       transform="translate(-0.99495242,1.0030016)"
       id="g6023">
      <path
         id="rect6009"
         transform="matrix(1.75,0,0,1.75,-11.005049,-14.003002)"
         d="M 12.232422 0.91210938 C 11.617338 0.91210944 11.002559 1.1478319 10.53125 1.6191406 L 8.5429688 3.6074219 C 7.6003513 4.5500394 7.6003512 6.0671481 8.5429688 7.0097656 L 8.9902344 7.4570312 C 9.9328519 8.3996488 11.449961 8.3996487 12.392578 7.4570312 L 14.380859 5.46875 C 15.323477 4.5261326 15.323477 3.0090238 14.380859 2.0664062 L 13.933594 1.6191406 C 13.462285 1.1478319 12.847505 0.91210931 12.232422 0.91210938 z M 12.050781 2.0332031 C 12.487146 2.0112389 12.986714 2.2132762 13.386719 2.6132812 C 14.026727 3.2532894 14.15907 4.1514767 13.681641 4.6289062 L 11.554688 6.7558594 C 11.077258 7.2332891 10.177117 7.1028987 9.5371094 6.4628906 C 8.8971012 5.8228825 8.7667109 4.9227422 9.2441406 4.4453125 L 11.371094 2.3183594 C 11.55013 2.1393233 11.788962 2.0463817 12.050781 2.0332031 z "
         style="opacity:1;fill:#b9b9b9;fill-opacity:1;stroke:none;stroke-width:1;stroke-linecap:square;stroke-linejoin:round;stroke-miterlimit:4;stroke-dasharray:none;stroke-dashoffset:0;stroke-opacity:1" />
      <path
         id="rect6019"
         transform="matrix(1.75,0,0,1.75,-11.005049,-14.003002)"
         d="M 5.3085938 7.8359375 C 4.6935103 7.8359375 4.0787306 8.07166 3.6074219 8.5429688 L 1.6191406 10.53125 C 0.67652311 11.473868 0.67652311 12.990976 1.6191406 13.933594 L 2.0664062 14.380859 C 3.0090238 15.323477 4.5261325 15.323477 5.46875 14.380859 L 7.4570312 12.392578 C 8.3996488 11.449961 8.3996488 9.9328519 7.4570312 8.9902344 L 7.0097656 8.5429688 C 6.5384569 8.07166 5.9236772 7.8359375 5.3085938 7.8359375 z M 5.125 8.9570312 C 5.5613648 8.9350671 6.0628855 9.1371043 6.4628906 9.5371094 C 7.1028988 10.177118 7.233289 11.077258 6.7558594 11.554688 L 4.6289062 13.681641 C 4.1514766 14.15907 3.2532894 14.026727 2.6132812 13.386719 C 1.9732731 12.746711 1.8409297 11.848523 2.3183594 11.371094 L 4.4453125 9.2441406 C 4.6243486 9.0651045 4.8631811 8.9702098 5.125 8.9570312 z "
         style="opacity:1;fill:#b9b9b9;fill-opacity:1;stroke:none;stroke-width:1;stroke-linecap:square;stroke-linejoin:round;stroke-miterlimit:4;stroke-dasharray:none;stroke-dashoffset:0;stroke-opacity:1" />
      <path
         id="path6059"
         transform="matrix(1.75,0,0,1.75,-11.005049,-14.003002)"
         d="M 8.5429688,7.0097656 8.9902344,7.4570312 C 9.3329007,7.7996976 9.752098,8.013892 10.191406,8.1074219 L 11.507812,6.7910156 C 11.020832,7.219599 10.15822,7.084002 9.5371094,6.4628906 9.8537942,6.2561206 8.3907355,6.6635459 8.5429688,7.0097656 Z"
         style="opacity:0.3;fill:#000000;fill-opacity:1;stroke:none;stroke-width:1;stroke-linecap:square;stroke-linejoin:round;stroke-miterlimit:4;stroke-dasharray:none;stroke-dashoffset:0;stroke-opacity:1" />
      <path
         style="opacity:0.3;fill:#000000;fill-opacity:1;stroke:none;stroke-width:1;stroke-linecap:square;stroke-linejoin:round;stroke-miterlimit:4;stroke-dasharray:none;stroke-dashoffset:0;stroke-opacity:1"
         d="M 1.2705109,0.95239521 2.0532257,1.73511 C 2.6528919,2.3347761 3.0277321,3.0683713 3.1914094,3.8371604 L 0.88769838,6.1408709 C 1.6377194,5.2886559 1.4004246,3.7790849 0.31347968,2.6921413 -0.04836782,3.2463397 0.66462638,0.68598691 1.2705109,0.95239521 Z"
         id="path6064" />
      <rect
         style="opacity:1;fill:#b9b9b9;fill-opacity:1;stroke:none;stroke-width:1;stroke-linecap:square;stroke-linejoin:round;stroke-miterlimit:4;stroke-dasharray:none;stroke-dashoffset:0;stroke-opacity:1"
         id="rect6005"
         width="13.342449"
         height="3.8121283"
         x="-4.5425844"
         y="0.20956397"
         ry="2.40625"
         rx="1.1484375"
         transform="matrix(0.70710678,-0.70710678,0.70710678,0.70710678,0,0)" />
    </g>
  </g>
</svg>

<?xml version="1.0" encoding="UTF-8" standalone="no"?>
<svg
   xmlns:dc="http://purl.org/dc/elements/1.1/"
   xmlns:cc="http://creativecommons.org/ns#"
   xmlns:rdf="http://www.w3.org/1999/02/22-rdf-syntax-ns#"
   xmlns:svg="http://www.w3.org/2000/svg"
   xmlns="http://www.w3.org/2000/svg"
   xmlns:sodipodi="http://sodipodi.sourceforge.net/DTD/sodipodi-0.dtd"
   xmlns:inkscape="http://www.inkscape.org/namespaces/inkscape"
   viewBox="0 0 16 16"
   id="svg2"
   version="1.1"
   inkscape:version="0.91 r13725"
   sodipodi:docname="apps-pagetree-page-shortcut-external-hideinmenu.svg">
  <metadata
     id="metadata16">
    <rdf:RDF>
      <cc:Work
         rdf:about="">
        <dc:format>image/svg+xml</dc:format>
        <dc:type
           rdf:resource="http://purl.org/dc/dcmitype/StillImage" />
        <dc:title></dc:title>
      </cc:Work>
    </rdf:RDF>
  </metadata>
  <defs
     id="defs14" />
  <sodipodi:namedview
     pagecolor="#ffffff"
     bordercolor="#666666"
     borderopacity="1"
     objecttolerance="10"
     gridtolerance="10"
     guidetolerance="10"
     inkscape:pageopacity="0"
     inkscape:pageshadow="2"
     inkscape:window-width="1920"
     inkscape:window-height="1027"
     id="namedview12"
     showgrid="false"
     inkscape:zoom="24.169014"
     inkscape:cx="11.106097"
     inkscape:cy="5.5516899"
     inkscape:window-x="-8"
     inkscape:window-y="-8"
     inkscape:window-maximized="1"
     inkscape:current-layer="svg2" />
  <path
     style="fill:#b9b9b9;fill-opacity:1"
     inkscape:connector-curvature="0"
     id="path6"
     d="m 12.21914,0.93001 c -0.61389,0 -1.22721,0.23541 -1.69689,0.70509 l -1.9836,1.9836 c -0.9405,0.9405 -0.9405,2.45385 0,3.39378 l 0.44631,0.44631 c 0.9405,0.9405 2.45328,0.9405 3.39378,0 l 1.9836,-1.9836 c 0.9405,-0.9405 0.9405,-2.45328 0,-3.39378 L 13.91603,1.6351 C 13.44521,1.16542 12.83189,0.93001 12.21857,0.93001 Z m -0.18126,1.11834 c 0.43491,-0.02166 0.93366,0.17955 1.33266,0.57855 0.6384,0.6384 0.7695,1.53444 0.29412,2.01096 L 11.54312,6.7594 C 11.0666,7.23535 10.16942,7.10539 9.53102,6.46699 8.89262,5.82859 8.76152,4.93084 9.23804,4.45489 l 2.12154,-2.12211 c 0.17898,-0.17841 0.41724,-0.27132 0.6783,-0.285 z M 5.31245,7.8367 c -0.61275,0 -1.22664,0.23484 -1.69689,0.70509 l -1.9836,1.9836 c -0.9405,0.9405 -0.9405,2.45328 0,3.39378 l 0.44631,0.44688 c 0.9405,0.9405 2.45442,0.9405 3.39435,0 l 1.9836,-1.9836 c 0.9405,-0.9405 0.9405,-2.45385 0,-3.39378 L 7.00934,8.54179 C 6.53909,8.07154 5.92634,7.8367 5.31245,7.8367 Z m -0.1824,1.11834 c 0.43434,-0.0228 0.9348,0.17955 1.3338,0.57855 0.6384,0.6384 0.76836,1.53615 0.29241,2.0121 L 4.63472,13.6678 C 4.1582,14.14375 3.26216,14.01208 2.62376,13.37368 1.98536,12.73528 1.85426,11.83924 2.32964,11.36272 L 4.45118,9.24118 C 4.63016,9.06277 4.86842,8.96758 5.12948,8.95504 Z" />
  <rect
     style="fill:#b9b9b9;fill-opacity:1"
     id="rect10"
     width="7.6049399"
     height="2.1728399"
     x="-3.800077"
     y="10.22567"
     ry="1.3714199"
     rx="0.65436"
     transform="matrix(0.70710678,-0.70710678,0.70710678,0.70710678,0,0)" />
</svg>
